docs/assets/icons/web.svg

<?xml version="1.0" encoding="UTF-8" standalone="no"?>
<svg
   id="mdi-web"
   viewBox="0 0 24 24"
   version="1.1"
   sodipodi:docname="web.svg"
   inkscape:version="1.4.3 (0d15f75042, 2025-12-25)"
   xmlns:inkscape="http://www.inkscape.org/namespaces/inkscape"
   xmlns:sodipodi="http://sodipodi.sourceforge.net/DTD/sodipodi-0.dtd"
   xmlns="http://www.w3.org/2000/svg"
   xmlns:svg="http://www.w3.org/2000/svg">
  <defs
     id="defs1">
    <filter
       style="color-interpolation-filters:sRGB;"
       inkscape:label="Drop Shadow"
       id="filter3"
       x="-0.051000002"
       y="-0.051000002"
       width="1.127"
       height="1.127">
      <feFlood
         result="flood"
         in="SourceGraphic"
         flood-opacity="0.498039"
         flood-color="rgb(0,0,0)"
         id="feFlood2" />
      <feGaussianBlur
         result="blur"
         in="SourceGraphic"
         stdDeviation="0.300000"
         id="feGaussianBlur2" />
      <feOffset
         result="offset"
         in="blur"
         dx="0.500000"
         dy="0.500000"
         id="feOffset2" />
      <feComposite
         result="comp1"
         operator="in"
         in="flood"
         in2="offset"
         id="feComposite2" />
      <feComposite
         result="comp2"
         operator="over"
         in="SourceGraphic"
         in2="comp1"
         id="feComposite3" />
    </filter>
  </defs>
  <sodipodi:namedview
     id="namedview1"
     pagecolor="#505050"
     bordercolor="#ffffff"
     borderopacity="1"
     inkscape:showpageshadow="0"
     inkscape:pageopacity="0"
     inkscape:pagecheckerboard="1"
     inkscape:deskcolor="#505050"
     inkscape:zoom="34.176828"
     inkscape:cx="10.69438"
     inkscape:cy="11.147904"
     inkscape:window-width="2560"
     inkscape:window-height="1368"
     inkscape:window-x="0"
     inkscape:window-y="0"
     inkscape:window-maximized="1"
     inkscape:current-layer="mdi-web" />
  <path
     id="path1"
     style="fill:#02a6f2;fill-opacity:1;filter:url(#filter3);stroke:#4cae4f;stroke-opacity:1;stroke-linejoin:round;stroke-linecap:round;paint-order:normal;stroke-width:0.6;stroke-dasharray:none"
     d="M 11.75 1.75 C 6.22 1.75 1.75 6.25 1.75 11.75 A 10 10 0 0 0 11.75 21.75 A 10 10 0 0 0 21.75 11.75 A 10 10 0 0 0 11.75 1.75 z M 11.75 3.7792969 C 12.58 4.9792969 13.250156 6.32 13.660156 7.75 L 9.8398438 7.75 C 10.249844 6.32 10.92 4.9792969 11.75 3.7792969 z M 9.1503906 4.1894531 C 8.5503906 5.2994531 8.1 6.5 7.75 7.75 L 4.8300781 7.75 C 5.7800781 6.09 7.3203906 4.8094531 9.1503906 4.1894531 z M 14.339844 4.1894531 C 16.179844 4.8194531 17.709922 6.09 18.669922 7.75 L 15.720703 7.75 C 15.400703 6.5 14.939844 5.2994531 14.339844 4.1894531 z M 4.0097656 9.75 L 7.390625 9.75 C 7.310625 10.41 7.25 11.07 7.25 11.75 C 7.25 12.43 7.310625 13.09 7.390625 13.75 L 4.0097656 13.75 C 3.8497656 13.11 3.75 12.44 3.75 11.75 C 3.75 11.06 3.8497656 10.39 4.0097656 9.75 z M 9.4101562 9.75 L 14.089844 9.75 C 14.179844 10.4 14.25 11.07 14.25 11.75 C 14.25 12.43 14.179844 13.09 14.089844 13.75 L 9.4101562 13.75 C 9.3101563 13.09 9.25 12.43 9.25 11.75 C 9.25 11.07 9.3101563 10.4 9.4101562 9.75 z M 16.109375 9.75 L 19.490234 9.75 C 19.650234 10.39 19.75 11.06 19.75 11.75 C 19.75 12.44 19.650234 13.11 19.490234 13.75 L 16.109375 13.75 C 16.189375 13.09 16.25 12.43 16.25 11.75 C 16.25 11.07 16.189375 10.41 16.109375 9.75 z M 4.8300781 15.75 L 7.75 15.75 C 8.1 17 8.5503906 18.200547 9.1503906 19.310547 C 7.3203906 18.680547 5.7800781 17.4 4.8300781 15.75 z M 9.8398438 15.75 L 13.660156 15.75 C 13.250156 17.18 12.58 18.510937 11.75 19.710938 C 10.92 18.510938 10.249844 17.18 9.8398438 15.75 z M 15.720703 15.75 L 18.669922 15.75 C 17.709922 17.4 16.179844 18.680547 14.339844 19.310547 C 14.939844 18.200547 15.400703 17 15.720703 15.75 z " />
</svg>

<?xml version="1.0" encoding="UTF-8" standalone="no"?>
<svg
   id="mdi-web"
   viewBox="0 0 24 24"
   version="1.1"
   sodipodi:docname="web.svg"
   inkscape:version="1.4.3 (0d15f75042, 2025-12-25)"
   xmlns:inkscape="http://www.inkscape.org/namespaces/inkscape"
   xmlns:sodipodi="http://sodipodi.sourceforge.net/DTD/sodipodi-0.dtd"
   xmlns="http://www.w3.org/2000/svg"
   xmlns:svg="http://www.w3.org/2000/svg">
  <defs
     id="defs1">
    <filter
       style="color-interpolation-filters:sRGB;"
       inkscape:label="Drop Shadow"
       id="filter3"
       x="-0.036000001"
       y="-0.036000001"
       width="1.097"
       height="1.097">
      <feFlood
         result="flood"
         in="SourceGraphic"
         flood-opacity="0.498039"
         flood-color="rgb(0,0,0)"
         id="feFlood2" />
      <feGaussianBlur
         result="blur"
         in="SourceGraphic"
         stdDeviation="0.300000"
         id="feGaussianBlur2" />
      <feOffset
         result="offset"
         in="blur"
         dx="0.500000"
         dy="0.500000"
         id="feOffset2" />
      <feComposite
         result="comp1"
         operator="in"
         in="flood"
         in2="offset"
         id="feComposite2" />
      <feComposite
         result="comp2"
         operator="over"
         in="SourceGraphic"
         in2="comp1"
         id="feComposite3" />
    </filter>
  </defs>
  <sodipodi:namedview
     id="namedview1"
     pagecolor="#505050"
     bordercolor="#ffffff"
     borderopacity="1"
     inkscape:showpageshadow="0"
     inkscape:pageopacity="0"
     inkscape:pagecheckerboard="1"
     inkscape:deskcolor="#505050"
     inkscape:zoom="45.254834"
     inkscape:cx="11.059592"
     inkscape:cy="12.241786"
     inkscape:window-width="2560"
     inkscape:window-height="1368"
     inkscape:window-x="0"
     inkscape:window-y="0"
     inkscape:window-maximized="1"
     inkscape:current-layer="mdi-web" />
  <path
     d="m 16.11,13.75 c 0.08,-0.66 0.14,-1.32 0.14,-2 0,-0.68 -0.06,-1.34 -0.14,-2 h 3.38 c 0.16,0.64 0.26,1.31 0.26,2 0,0.69 -0.1,1.36 -0.26,2 m -5.15,5.56 C 14.94,18.2 15.4,17 15.72,15.75 h 2.95 c -0.96,1.65 -2.49,2.93 -4.33,3.56 M 14.09,13.75 H 9.41 c -0.1,-0.66 -0.16,-1.32 -0.16,-2 0,-0.68 0.06,-1.35 0.16,-2 h 4.68 c 0.09,0.65 0.16,1.32 0.16,2 0,0.68 -0.07,1.34 -0.16,2 m -2.34,5.96 c -0.83,-1.2 -1.5,-2.53 -1.91,-3.96 h 3.82 c -0.41,1.43 -1.08,2.76 -1.91,3.96 M 7.75,7.75 H 4.83 C 5.78,6.09 7.32,4.81 9.15,4.19 8.55,5.3 8.1,6.5 7.75,7.75 m -2.92,8 H 7.75 C 8.1,17 8.55,18.2 9.15,19.31 7.32,18.68 5.78,17.4 4.83,15.75 m -0.82,-2 c -0.16,-0.64 -0.26,-1.31 -0.26,-2 0,-0.69 0.1,-1.36 0.26,-2 h 3.38 c -0.08,0.66 -0.14,1.32 -0.14,2 0,0.68 0.06,1.34 0.14,2 m 4.36,-9.97 c 0.83,1.2 1.5,2.54 1.91,3.97 H 9.84 c 0.41,-1.43 1.08,-2.77 1.91,-3.97 m 6.92,3.97 H 15.72 C 15.4,6.5 14.94,5.3 14.34,4.19 c 1.84,0.63 3.37,1.9 4.33,3.56 m -6.92,-6 c -5.53,0 -10,4.5 -10,10 a 10,10 0 0 0 10,10 10,10 0 0 0 10,-10 10,10 0 0 0 -10,-10 z"
     id="path1"
     style="fill:#02a6f2;fill-opacity:1;filter:url(#filter3)" />
</svg>
